X:1
T:Title
%%score { ( 1 4 ) | ( 2 3 ) }
L:1/8
Q:1/4=100
M:6/8
K:Bb
V:1 treble nm="Grand Piano"
V:4 treble 
V:2 bass 
V:3 bass 
V:1
 [DF][DF][DF] FGA | [DB]6 | GGG [GB][FA][EG] | [DF]6 | [DF][DF][DF] F2 F | c6 | %6
w: E.~C.~Avis * * * * *||||||
 [DF][DF][DF] D-[DB]c | [Fd]6 | [GB]3 [^FA]3 | GGG G2 G | [DF]6 | ABc c2 d | [DB]6 | %13
w: |||||||
 [GB][GB][GB] [FA]2 [EG] | [DF]6 | z3 .F3 | [B,DF]6 |] %17
w: ||||
V:2
 z3 .A,3 | [B,,B,]6 | [E,B,E][E,B,E][E,B,E] [E,E]2 [E,B,] | [B,,B,]6 | %4
 [B,,B,][B,,B,][B,,B,] [F,A,E]2 [F,A,E] | [F,A,E]6 | [B,,B,][B,,B,][B,,B,] z F,[F,A,E] | [B,,B,]6 | %8
 [G,D]3 [D,D]3 | [E,B,E][E,B,E][E,B,E] [E,B,E]2 [E,B,E] | [B,,B,]6 | %11
 [F,C][F,D][F,E] [F,A,E]2 [F,A,F] | [B,,F,]6 | [E,B,][E,B,][E,B,] [E,B,]2 [E,B,] | [B,,B,]6 | %15
 [F,A,][F,A,][F,A,] [A,C]B,F, | B,,6 |] %17
V:3
 [B,,B,][B,,B,][B,,B,] [F,E]-[F,B,E][F,CE] | x6 | x6 | x6 | x6 | x6 | z3 .B,,3 | x6 | x6 | x6 | %10
 x6 | x6 | x6 | x6 | x6 | z3 .F,3 | x6 |] %17
V:4
 x6 | x6 | x6 | x6 | x6 | x6 | z3 .[B,F]3 | x6 | x6 | x6 | x6 | x6 | x6 | x6 | x6 | FFF z D[CEF] | %16
 x6 |] %17

